dist/images/shield.svg

<svg width="28" height="32" viewBox="0 0 28 32" fill="none" xmlns="http://www.w3.org/2000/svg">
<path d="M12.6571 17.8695L8.60902 14.0162L6.88477 15.8276L12.7975 21.4558L21.8067 11.4249L19.9461 9.75378L12.6571 17.8695Z" fill="#0094FF"/>
<path d="M24.2799 4.0745C21.2485 3.53125 18.4569 1.87575 17.0626 0.937312C16.1516 0.324125 15.0922 0 13.9988 0C12.9053 0 11.8458 0.324125 10.9349 0.93725C9.54064 1.87569 6.74902 3.53125 3.71764 4.0745C1.92227 4.39625 0.619141 5.94963 0.619141 7.76806V15.3124C0.619141 17.8047 1.31645 20.2342 2.69158 22.5336C3.76745 24.3324 5.25808 26.0516 7.12208 27.6434C10.2563 30.32 13.3598 31.7157 13.4903 31.7738L13.9987 32L14.5071 31.7738C14.6376 31.7158 17.7411 30.32 20.8753 27.6434C22.7393 26.0516 24.23 24.3324 25.3058 22.5336C26.6811 20.2343 27.3783 17.8047 27.3783 15.3124V7.76813C27.3784 5.94963 26.0753 4.39625 24.2799 4.0745ZM24.8775 15.3125C24.8775 19.0281 23.0005 22.5234 19.2983 25.7015C17.1463 27.5489 14.9615 28.753 13.9989 29.2417C11.7863 28.1174 3.12002 23.208 3.12002 15.3125V7.76813C3.12002 7.16219 3.55689 6.64406 4.15883 6.53619C7.6412 5.91213 10.774 4.06019 12.3314 3.01194C12.8281 2.67756 13.4046 2.50081 13.9988 2.50081C14.5929 2.50081 15.1695 2.67756 15.6661 3.01187C17.2236 4.06019 20.3563 5.912 23.8387 6.53606C24.4406 6.64394 24.8775 7.16206 24.8775 7.768V15.3125Z" fill="#0094FF"/>
</svg>

<svg width="28" height="32" fill="none" xmlns="http://www.w3.org/2000/svg"><path d="M12.657 17.87L8.61 14.015l-1.724 1.812 5.912 5.628 9.01-10.031-1.86-1.671-7.29 8.115z" fill="#0094FF"/><path d="M24.28 4.074c-3.032-.543-5.823-2.198-7.217-3.137a5.47 5.47 0 00-6.128 0c-1.394.939-4.186 2.594-7.217 3.137A3.753 3.753 0 00.619 7.768v7.544c0 2.493.697 4.922 2.073 7.222 1.075 1.798 2.566 3.518 4.43 5.11 3.134 2.676 6.238 4.072 6.368 4.13L14 32l.508-.226c.13-.058 3.234-1.454 6.368-4.13 1.864-1.592 3.355-3.312 4.43-5.11 1.376-2.3 2.073-4.73 2.073-7.222V7.768a3.753 3.753 0 00-3.098-3.694zm.598 11.238c0 3.716-1.878 7.211-5.58 10.39a27.742 27.742 0 01-5.3 3.54C11.787 28.117 3.12 23.208 3.12 15.312V7.769c0-.606.437-1.124 1.039-1.232 3.482-.624 6.615-2.476 8.172-3.524a2.976 2.976 0 013.335 0c1.558 1.048 4.69 2.9 8.173 3.524a1.254 1.254 0 011.039 1.232v7.545z" fill="#0094FF"/></svg>
